build/Karasa-Jaga/scalable/actions/tab-new-symbolic.svg

<svg height="16" width="16" xmlns="http://www.w3.org/2000/svg"><path d="m1.9375 1c-.475921 0-.844509.367828-.84375.84375v3.65625c-.11744295.09823-.218315.20104-.5.25v1.5625h-.03125v5.5625h7.5039062c-.010642-.125864-.039062-.246383-.039062-.375 0-2.469972 2.0026838-4.4726562 4.4726558-4.4726562 1.144718 0 2.177699.4430092 2.96875 1.1503906v-1.4277344-.4375-.75c0-.1189805-.02058-.2423396-.0625-.34375-.08384-.2028208-.234679-.3536597-.4375-.4375-.10141-.04192-.224769-.0625-.34375-.0625h-4.125v-3.875c-.000008-.475919-.367827-.84375-.84375-.84375z" fill="#bebebe"/><path d="m12.5 9.0000003c-1.933 0-3.5 1.5669997-3.5 3.4999997s1.567 3.5 3.5 3.5 3.5-1.567 3.5-3.5-1.567-3.4999997-3.5-3.4999997zm-.5.9999997h1v2h2v1h-2v2h-1v-2h-2v-1h2z" fill="#bebebe" fill-rule="evenodd"/><text x="-.707107" y="11.448"><tspan x="-.707107" y="46.838623"/></text></svg>

<?xml version="1.0" encoding="UTF-8" standalone="no"?>
<!-- Created with Inkscape (http://www.inkscape.org/) -->

<svg
   xmlns:dc="http://purl.org/dc/elements/1.1/"
   xmlns:cc="http://creativecommons.org/ns#"
   xmlns:rdf="http://www.w3.org/1999/02/22-rdf-syntax-ns#"
   xmlns:svg="http://www.w3.org/2000/svg"
   xmlns="http://www.w3.org/2000/svg"
   xmlns:sodipodi="http://sodipodi.sourceforge.net/DTD/sodipodi-0.dtd"
   xmlns:inkscape="http://www.inkscape.org/namespaces/inkscape"
   id="svg7384"
   height="16"
   width="16"
   version="1.1"
   inkscape:version="0.92.2 (unknown)"
   sodipodi:docname="tab-new-symbolic.svg">
  <defs
     id="defs9">
    <linearGradient
       id="linearGradient4466">
      <stop
         style="stop-color:#bebebe;stop-opacity:1;"
         offset="0"
         id="stop4468" />
      <stop
         id="stop4474"
         offset="0.50676125"
         style="stop-color:#bebebe;stop-opacity:0.34684685" />
      <stop
         style="stop-color:#bebebe;stop-opacity:0"
         offset="1"
         id="stop4470" />
    </linearGradient>
    <filter
       color-interpolation-filters="sRGB"
       id="filter7554">
      <feBlend
         mode="darken"
         in2="BackgroundImage"
         id="feBlend7556" />
    </filter>
  </defs>
  <sodipodi:namedview
     pagecolor="#ffffff"
     bordercolor="#666666"
     borderopacity="1"
     objecttolerance="10"
     gridtolerance="10"
     guidetolerance="10"
     inkscape:pageopacity="0"
     inkscape:pageshadow="2"
     inkscape:window-width="1366"
     inkscape:window-height="706"
     id="namedview7"
     showgrid="false"
     inkscape:zoom="8.0000004"
     inkscape:cx="14.356462"
     inkscape:cy="5.4287851"
     inkscape:window-x="0"
     inkscape:window-y="0"
     inkscape:window-maximized="1"
     inkscape:current-layer="svg7384"
     showguides="false"
     inkscape:guide-bbox="true"
     inkscape:snap-global="false" />
  <title
     id="title9167">Gnome Symbolic Icon Theme</title>
  <metadata
     id="metadata90">
    <rdf:RDF>
      <cc:Work
         rdf:about="">
        <dc:format>image/svg+xml</dc:format>
        <dc:type
           rdf:resource="http://purl.org/dc/dcmitype/StillImage" />
        <dc:title>Gnome Symbolic Icon Theme</dc:title>
      </cc:Work>
    </rdf:RDF>
  </metadata>
  <g
     id="g881">
    <path
       sodipodi:nodetypes="scccccccsscccsccsccss"
       inkscape:connector-curvature="0"
       id="rect3464"
       d="M 1.9375,1 C 1.461579,1 1.092991,1.367828 1.09375,1.84375 V 5.5 c -0.11744295,0.09823 -0.218315,0.20104 -0.5,0.25 V 7.3125 H 0.5625 v 5.5625 h 7.5039062 c -0.010642,-0.125864 -0.039062,-0.246383 -0.039062,-0.375 0,-2.469972 2.0026838,-4.4726562 4.4726558,-4.4726562 1.144718,0 2.177699,0.4430092 2.96875,1.1503906 V 7.75 7.3125 6.5625 c 0,-0.1189805 -0.02058,-0.2423396 -0.0625,-0.34375 C 15.32241,6.0159292 15.171571,5.8650903 14.96875,5.78125 14.86734,5.73933 14.743981,5.71875 14.625,5.71875 H 10.5 v -3.875 C 10.499992,1.367831 10.132173,1 9.65625,1 Z"
       style="fill:#bebebe;fill-opacity:1;stroke:none" />
    <g
       transform="translate(7.9982909,16.482281)"
       id="g30"
       style="enable-background:new">
      <g
         id="layer12"
         transform="translate(-345,-20.997)" />
    </g>
    <path
       style="color:#000000;clip-rule:nonzero;display:inline;overflow:visible;visibility:visible;opacity:1;isolation:auto;mix-blend-mode:normal;color-interpolation:sRGB;color-interpolation-filters:linearRGB;solid-color:#000000;solid-opacity:1;fill:#bebebe;fill-opacity:1;fill-rule:evenodd;stroke:none;stroke-width:1;stroke-linecap:butt;stroke-linejoin:miter;stroke-miterlimit:4;stroke-dasharray:none;stroke-dashoffset:0;stroke-opacity:1;color-rendering:auto;image-rendering:auto;shape-rendering:auto;text-rendering:auto;enable-background:accumulate"
       sodipodi:nodetypes="sssssccccccccccccc"
       id="path6731"
       d="M 12.5,9.0000003 C 10.567,9.0000003 9,10.567 9,12.5 9,14.433 10.567,16 12.5,16 14.433,16 16,14.433 16,12.5 16,10.567 14.433,9.0000003 12.5,9.0000003 Z M 12,10 h 1 v 2 h 2 v 1 h -2 v 2 h -1 v -2 h -2 v -1 h 2 z"
       inkscape:connector-curvature="0" />
    <text
       id="text832"
       y="11.448"
       x="-0.70710677"
       style="font-style:normal;font-weight:normal;font-size:40px;line-height:1.25;font-family:sans-serif;letter-spacing:0px;word-spacing:0px;fill:#000000;fill-opacity:1;stroke:none"
       xml:space="preserve"><tspan
         y="46.838623"
         x="-0.70710677"
         id="tspan830"
         sodipodi:role="line"></tspan></text>
  </g>
</svg>
